X:303
T:Reel 303
M:4/4
K:Gmaj
L:1/8
dc|BGAF DGGF| (3EFG AF cEdc|BGAF DGGB|AGFD G2Ac|BGAF DGG2|BGAF DEFG|AFAB c2Bc|dfeg fdcA|dGgd dGBG|dGde f2ef|dgge deed|fdfd cAFA|dG (3GAG dGBG|dGde f2ef|gefd ecdB|AGFG ABcA|
